src/shared/_assets/icons/picture.svg

<svg xmlns="http://www.w3.org/2000/svg" fill="none" viewBox="0 0 18 18"><path fill="currentColor" d="M3 14h12l-3.75-5-3 4L6 10zm-3 4V0h18v18zm2-2h14V2H2z"/></svg>

<svg width="18" height="18" viewBox="0 0 18 18" fill="none" xmlns="http://www.w3.org/2000/svg">
<path d="M3 14H15L11.25 9L8.25 13L6 10L3 14ZM0 18V0H18V18H0ZM2 16H16V2H2V16Z" fill="#25DB77"/>
</svg>
